poi/svg/1608.svg

<?xml version="1.0" encoding="UTF-8" standalone="no"?>
<svg
   xmlns:dc="http://purl.org/dc/elements/1.1/"
   xmlns:cc="http://creativecommons.org/ns#"
   xmlns:rdf="http://www.w3.org/1999/02/22-rdf-syntax-ns#"
   xmlns:svg="http://www.w3.org/2000/svg"
   xmlns="http://www.w3.org/2000/svg"
   xmlns:sodipodi="http://sodipodi.sourceforge.net/DTD/sodipodi-0.dtd"
   xmlns:inkscape="http://www.inkscape.org/namespaces/inkscape"
   inkscape:version="1.0 (4035a4fb49, 2020-05-01)"
   sodipodi:docname="1608.svg"
   id="svg20"
   version="1.2"
   viewBox="0 0 42.519639 42.519639"
   height="14.999999mm"
   width="14.999999mm">
  <metadata
     id="metadata24">
    <rdf:RDF>
      <cc:Work
         rdf:about="">
        <dc:format>image/svg+xml</dc:format>
        <dc:type
           rdf:resource="http://purl.org/dc/dcmitype/StillImage" />
        <dc:title>Qt SVG Document</dc:title>
      </cc:Work>
    </rdf:RDF>
  </metadata>
  <sodipodi:namedview
     inkscape:current-layer="svg20"
     inkscape:window-maximized="0"
     inkscape:window-y="0"
     inkscape:window-x="0"
     inkscape:cy="37.918878"
     inkscape:cx="13.548942"
     inkscape:zoom="2.9205268"
     showgrid="false"
     id="namedview22"
     inkscape:window-height="480"
     inkscape:window-width="1034"
     inkscape:pageshadow="2"
     inkscape:pageopacity="0"
     guidetolerance="10"
     gridtolerance="10"
     objecttolerance="10"
     borderopacity="1"
     bordercolor="#666666"
     pagecolor="#ffffff" />
  <title
     id="title2">Qt SVG Document</title>
  <desc
     id="desc4">Generated with Qt</desc>
  <defs
     id="defs6" />
  <g
     transform="translate(5.25984,5.25984)"
     id="g18"
     stroke-linejoin="bevel"
     stroke-linecap="square"
     fill-rule="evenodd"
     stroke-width="1"
     stroke="#000000"
     fill="none">
    <g
       id="g10"
       font-style="normal"
       font-weight="400"
       font-size="7.8px"
       font-family="'MS Shell Dlg 2'"
       stroke="none"
       fill-opacity="1"
       fill="#66b1e3">
      <path
         id="path8"
         d="M 37.2598,16 C 37.2598,27.7415 27.7415,37.2598 16,37.2598 4.25851,37.2598 -5.25984,27.7415 -5.25984,16 -5.25984,4.25851 4.25851,-5.25984 16,-5.25984 27.7415,-5.25984 37.2598,4.25851 37.2598,16"
         fill-rule="evenodd"
         vector-effect="non-scaling-stroke" />
    </g>
    <g
       id="g14"
       font-style="normal"
       font-weight="400"
       font-size="7.8px"
       font-family="'MS Shell Dlg 2'"
       transform="translate(14.8661,13.1654)"
       stroke="none"
       fill-opacity="0.94902"
       fill="#ffffff">
      <path
         id="path12"
         d="M -0.932617,1.48535 C -1.08659,1.62533 -1.29655,1.83179 -1.5625,2.10474 -1.82845,2.37769 -2.1119,2.65763 -2.41284,2.94458 -2.71379,3.23153 -3.00073,3.49748 -3.27368,3.74243 -3.54663,3.98739 -3.77409,4.15186 -3.95605,4.23584 -4.264,4.4598 -4.62093,4.80273 -5.02686,5.26465 -5.43278,5.72656 -5.70573,6.0695 -5.8457,6.29346 -5.90169,6.37744 -5.99268,6.5769 -6.11865,6.89185 -6.24463,7.20679 -6.3951,7.54622 -6.57007,7.91016 c -0.17497,0.36393 -0.33244,0.71736 -0.47241,1.0603 -0.13997,0.34294 -0.22396,0.57039 -0.25195,0.68237 -0.028,0.11198 -0.06649,0.27645 -0.11548,0.49337 -0.04899,0.217 -0.10848,0.455 -0.17847,0.7139 -0.06999,0.259 -0.13997,0.5109 -0.20996,0.7559 -0.06999,0.2449 -0.13298,0.4514 -0.18896,0.6194 -0.16797,0.3079 -0.11898,0.5773 0.14697,0.8083 0.26595,0.231 0.5319,0.3884 0.79785,0.4724 0.43392,0.266 0.57389,0.4409 0.41992,0.5249 -0.08398,0.056 -0.31144,0.042 -0.68237,-0.042 -0.37093,-0.084 -0.68237,-0.126 -0.93433,-0.126 -0.26595,0 -0.56339,0.112 -0.89233,0.336 -0.32894,0.2239 -0.60539,0.4269 -0.82935,0.6089 -0.12596,0.056 -0.23096,0.1609 -0.31496,0.3149 -0.084,0.154 -0.1679,0.3045 -0.2519,0.4514 -0.084,0.147 -0.161,0.2695 -0.231,0.3675 -0.07,0.0979 -0.154,0.1189 -0.2519,0.0629 -0.056,-0.0559 -0.0385,-0.1784 0.0524,-0.3674 0.091,-0.1889 0.1995,-0.3884 0.3255,-0.5984 0.126,-0.2099 0.2694,-0.4234 0.4304,-0.6404 0.161,-0.2169 0.26946,-0.3954 0.32545,-0.5354 0.16797,-0.2659 0.38143,-0.5843 0.64038,-0.9553 0.25895,-0.3709 0.33244,-0.7103 0.22046,-1.0183 C -9.1001,11.5495 -9.19458,10.8881 -9.29956,9.91528 -9.40454,8.94246 -9.33805,7.82617 -9.1001,6.56641 -8.93213,5.26465 -8.65568,4.10636 -8.27075,3.09155 -7.88582,2.07674 -7.65137,1.2264 -7.56738,0.540527 c 0.02799,-0.349935 -0.021,-0.6298825 -0.14698,-0.839843 -0.12597,-0.209961 -0.27644,-0.374431 -0.45141,-0.493409 -0.17497,-0.118977 -0.33944,-0.199463 -0.49341,-0.241455 -0.15397,-0.04199 -0.24495,-0.06299 -0.27295,-0.06299 -0.05599,0 -0.18546,0.014 -0.38843,0.04199 -0.20296,0.028 -0.39192,0.035 -0.56689,0.021 -0.17495,-0.014 -0.26945,-0.05599 -0.28345,-0.12598 -0.014,-0.06998 0.14,-0.22395 0.46192,-0.46191 0.65787,-0.41992 1.20027,-0.63688 1.62719,-0.65088 0.42692,-0.014 0.80135,-0.021 1.12329,-0.021 0.32194,-0.05598 0.66138,-0.12247 1.01831,-0.19946 0.35694,-0.07698 0.64738,-0.15747 0.87134,-0.24145 0.08399,-0.05599 0.38493,-0.29045 0.90283,-0.70337 0.51791,-0.41293 1.1128,-0.87134 1.78467,-1.37525 0.67188,-0.5039 1.36125,-0.98681 2.068118,-1.44873 0.706868,-0.46191 1.298258,-0.77685 1.774172,-0.94482 0.95182,-0.33594 1.85815,-0.51091 2.71899,-0.5249 0.86084,-0.014 1.59221,0.04899 2.19409,0.18896 0.30795,0.05599 0.5634,0.13998 0.76636,0.25195 0.20296,0.11198 0.37443,0.24496 0.51441,0.39893 0.15397,0.13997 0.30094,0.29395 0.44091,0.46191 h 0.77686 c 0.19596,0 0.38843,0.014 0.57739,0.042 0.18897,0.02799 0.31144,0.06998 0.36743,0.12597 0.22392,0.23796 0.22392,0.46892 0,0.69287 -0.05599,0.08399 -0.20646,0.16797 -0.45141,0.25196 -0.24496,0.08398 -0.51791,0.17147 -0.81885,0.26245 -0.30094,0.09098 -0.61589,0.17847 -0.94483,0.26245 -0.32893,0.08398 -0.62638,0.16797 -0.89233,0.25195 -0.27995,0.11198 -0.59839,0.26945 -0.95532,0.47241 -0.35693,0.20297 -0.69637,0.41643 -1.01831,0.64039 -0.37793,0.26595 -0.74886,0.5249 -1.11279,0.77685 -0.05599,0.78386 -0.26596,1.36125 -0.62989,1.732179 -0.36393,0.370931 -0.67187,0.626383 -0.92383,0.766357 -0.25195,0.0839846 -0.40592,0.1259768 -0.46191,0.1259768 -0.06999,0 -0.09098,-0.0139974 -0.06299,-0.0419922 C 1.6709,-0.152344 1.70589,-0.264323 1.6499,-0.404297 L 1.54492,-0.677246 C 1.48893,-0.705241 1.36296,-0.631755 1.16699,-0.456787 0.971029,-0.28182 0.743571,-0.0788574 0.484619,0.1521 0.225667,0.383057 -0.0402832,0.628011 -0.313232,0.886963 -0.586182,1.14591 -0.792643,1.34538 -0.932617,1.48535 M -6.70654,5.87354 c 0.60189,-0.71387 1.20377,-1.42074 1.80566,-2.12061 0.5179,-0.57389 1.0708,-1.16878 1.65869,-1.78467 0.58789,-0.61588 1.12679,-1.11979 1.6167,-1.511717 0.60189,-0.5179037 1.088299,-0.920329 1.45923,-1.207275 0.370931,-0.286948 0.374431,-0.542398 0.010498,-0.766358 -0.26595,-0.15397 -0.612386,-0.16447 -1.039308,-0.03149 -0.42692,0.13297 -0.88533,0.45841 -1.37524,0.976314 -0.40593,0.447917 -0.85034,1.039307 -1.33325,1.774166 -0.48291,0.73487 -0.92733,1.44524 -1.33326,2.13111 -0.5179,0.79785 -1.00781,1.64469 -1.46972,2.54053 M 13.8486,2.34619 c 0.056,0.08399 0.091,0.16797 0.105,0.25195 0.014,0.08399 -0.049,0.16797 -0.189,0.25196 -0.0559,0.06998 -0.1644,0.12597 -0.3254,0.16797 -0.161,0.04199 -0.3464,0.07698 -0.5564,0.10498 -0.2099,0.02799 -0.4374,0.05599 -0.6824,0.08398 -0.2449,0.028 -0.4654,0.05599 -0.6613,0.08399 -0.21,0.05599 -0.4445,0.13297 -0.7034,0.23095 -0.259,0.09798 -0.5004,0.20996 -0.7244,0.33594 C 9.83138,3.96989 9.55843,4.09587 9.29248,4.23584 9.2085,4.80973 9.03003,5.19816 8.75708,5.40112 8.48413,5.60409 8.23568,5.73356 8.01172,5.78955 7.82975,5.87354 7.72477,5.91553 7.69678,5.91553 c -0.028,0 -0.04199,-0.014 -0.04199,-0.04199 C 7.71077,5.81755 7.73877,5.72656 7.73877,5.60059 V 5.43262 C 7.68278,5.40462 7.5848,5.44312 7.44482,5.5481 7.30485,5.65308 7.13338,5.76855 6.93042,5.89453 6.72746,6.02051 6.5245,6.15698 6.32153,6.30396 6.11857,6.45093 5.9611,6.56641 5.84912,6.65039 5.70915,6.73438 5.53768,6.85335 5.33472,7.00732 5.13175,7.1613 4.91829,7.32576 4.69434,7.50073 4.47038,7.6757 4.24992,7.83317 4.03296,7.97314 3.816,8.11312 3.65153,8.2111 3.53955,8.26709 3.3016,8.42106 3.03215,8.62752 2.7312,8.88647 2.43026,9.14543 2.2098,9.34489 2.06982,9.48486 2.01383,9.54085 1.92985,9.66333 1.81787,9.85229 1.70589,10.0413 1.57642,10.2477 1.42944,10.4717 1.28247,10.6956 1.146,10.9161 1.02002,11.1331 0.894043,11.35 0.817057,11.4865 0.789063,11.5425 c -0.05599,0.1679 -0.16447,0.4409 -0.32544,0.8188 -0.16097,0.378 -0.283447,0.6789 -0.3674316,0.9029 -0.139974,0.1679 -0.1329753,0.3464 0.0209966,0.5354 0.153971,0.1889 0.314941,0.3534 0.48291,0.4934 0.237955,0.1679 0.328938,0.2869 0.272949,0.3569 -0.083984,0.056 -0.248454,0.0245 -0.493408,-0.0945 -0.244955,-0.119 -0.458415,-0.2064 -0.640381,-0.2624 -0.167969,0 -0.374431,0.0665 -0.619385,0.1994 -0.244953,0.133 -0.437423,0.2415 -0.577393,0.3255 -0.16797,0.084 -0.33244,0.2554 -0.49341,0.5144 -0.16097,0.2589 -0.28345,0.3464 -0.36743,0.2624 -0.08398,-0.1539 0.0175,-0.3814 0.30444,-0.6823 0.28695,-0.301 0.50041,-0.5354 0.64038,-0.7034 0.13998,-0.168 0.32544,-0.3674 0.556401,-0.5984 0.230957,-0.231 0.304444,-0.4584 0.220459,-0.6824 -0.055989,-0.2379 -0.062988,-0.6858 -0.020996,-1.3437 0.041992,-0.6579 0.195964,-1.4138 0.461914,-2.26761 C 0.0961914,8.44906 0.393636,7.6932 0.736572,7.04932 1.07951,6.40544 1.32096,5.83854 1.46094,5.34863 1.51693,5.15267 1.50993,4.9742 1.43994,4.81323 1.36995,4.65226 1.27897,4.52979 1.16699,4.4458 1.05501,4.36182 0.939535,4.29883 0.820557,4.25684 0.701579,4.21484 0.628092,4.17985 0.600098,4.15186 c -0.027995,0 -0.104981,0 -0.230957,0 -0.125977,0 -0.244955,-0.007 -0.356934,-0.021 -0.1119791,-0.014 -0.167969,-0.04899 -0.167969,-0.10498 0,-0.05599 0.1119794,-0.16097 0.335938,-0.31494 C 0.670085,3.48698 1.06551,3.389 1.36646,3.41699 c 0.30094,0.028 0.56339,0.06999 0.78735,0.12598 0.23795,0 0.46891,-0.007 0.69287,-0.021 C 3.07064,3.50798 3.2736,3.45898 3.45557,3.375 3.51156,3.34701 3.73201,3.21753 4.11694,2.98657 4.50187,2.75562 4.94629,2.50366 5.4502,2.23071 5.9541,1.95776 6.46151,1.69181 6.97241,1.43286 7.48332,1.17391 7.91374,1.01644 8.26367,0.960449 8.94954,0.820475 9.57943,0.785482 10.1533,0.855469 10.7272,0.925456 11.2171,1.05143 11.623,1.2334 c 0.224,0.05599 0.392,0.13297 0.504,0.23096 0.1119,0.09798 0.2169,0.18896 0.3149,0.27294 0.084,0.11198 0.154,0.23096 0.21,0.35694 0.1679,0.02799 0.3359,0.05599 0.5039,0.08398 0.1539,0.028 0.2939,0.04899 0.4199,0.06299 0.126,0.014 0.2169,0.04899 0.2729,0.10498 M 5.68115,5.60059 C 6.08708,5.34863 6.40552,5.13517 6.63647,4.96021 6.86743,4.78524 6.89193,4.65576 6.70996,4.57178 6.62598,4.48779 6.45451,4.48779 6.19556,4.57178 5.9366,4.65576 5.65316,4.83073 5.34521,5.09668 5.05127,5.32064 4.71883,5.62858 4.3479,6.02051 3.97697,6.41243 3.63053,6.79036 3.30859,7.1543 2.94466,7.58822 2.55973,8.05013 2.15381,8.54004 2.55973,8.16211 2.97965,7.79118 3.41357,7.42725 3.74951,7.10531 4.12744,6.77987 4.54736,6.45093 4.96729,6.12199 5.34521,5.83854 5.68115,5.60059"
         fill-rule="evenodd"
         vector-effect="none" />
    </g>
    <g
       id="g16"
       font-style="normal"
       font-weight="400"
       font-size="7.8px"
       font-family="'MS Shell Dlg 2'"
       stroke="none"
       fill-opacity="1"
       fill="#66b1e3" />
  </g>
</svg>

<?xml version="1.0" encoding="UTF-8" standalone="no"?>
<svg width="11.2889mm" height="11.2889mm"
 viewBox="0 0 32 32"
 xmlns="http://www.w3.org/2000/svg" xmlns:xlink="http://www.w3.org/1999/xlink"  version="1.2" baseProfile="tiny">
<title>Qt SVG Document</title>
<desc>Generated with Qt</desc>
<defs>
</defs>
<g fill="none" stroke="black" stroke-width="1" fill-rule="evenodd" stroke-linecap="square" stroke-linejoin="bevel" >

<g fill="#66b1e3" fill-opacity="1" stroke="none" transform="matrix(1,0,0,1,0,0)"
font-family="MS Shell Dlg 2" font-size="7.8" font-weight="400" font-style="normal" 
>
<path vector-effect="non-scaling-stroke" fill-rule="evenodd" d="M37.2598,16 C37.2598,27.7415 27.7415,37.2598 16,37.2598 C4.25851,37.2598 -5.25984,27.7415 -5.25984,16 C-5.25984,4.25851 4.25851,-5.25984 16,-5.25984 C27.7415,-5.25984 37.2598,4.25851 37.2598,16 "/>
</g>

<g fill="#ffffff" fill-opacity="0.94902" stroke="none" transform="matrix(1,0,0,1,14.8661,13.1654)"
font-family="MS Shell Dlg 2" font-size="7.8" font-weight="400" font-style="normal" 
>
<path vector-effect="none" fill-rule="evenodd" d="M-0.932617,1.48535 C-1.08659,1.62533 -1.29655,1.83179 -1.5625,2.10474 C-1.82845,2.37769 -2.1119,2.65763 -2.41284,2.94458 C-2.71379,3.23153 -3.00073,3.49748 -3.27368,3.74243 C-3.54663,3.98739 -3.77409,4.15186 -3.95605,4.23584 C-4.264,4.4598 -4.62093,4.80273 -5.02686,5.26465 C-5.43278,5.72656 -5.70573,6.0695 -5.8457,6.29346 C-5.90169,6.37744 -5.99268,6.5769 -6.11865,6.89185 C-6.24463,7.20679 -6.3951,7.54622 -6.57007,7.91016 C-6.74504,8.27409 -6.90251,8.62752 -7.04248,8.97046 C-7.18245,9.3134 -7.26644,9.54085 -7.29443,9.65283 C-7.32243,9.76481 -7.36092,9.92928 -7.40991,10.1462 C-7.4589,10.3632 -7.51839,10.6012 -7.58838,10.8601 C-7.65837,11.1191 -7.72835,11.371 -7.79834,11.616 C-7.86833,11.8609 -7.93132,12.0674 -7.9873,12.2354 C-8.15527,12.5433 -8.10628,12.8127 -7.84033,13.0437 C-7.57438,13.2747 -7.30843,13.4321 -7.04248,13.5161 C-6.60856,13.7821 -6.46859,13.957 -6.62256,14.041 C-6.70654,14.097 -6.934,14.083 -7.30493,13.999 C-7.67586,13.915 -7.9873,13.873 -8.23926,13.873 C-8.50521,13.873 -8.80265,13.985 -9.13159,14.209 C-9.46053,14.4329 -9.73698,14.6359 -9.96094,14.8179 C-10.0869,14.8739 -10.1919,14.9788 -10.2759,15.1328 C-10.3599,15.2868 -10.4438,15.4373 -10.5278,15.5842 C-10.6118,15.7312 -10.6888,15.8537 -10.7588,15.9517 C-10.8288,16.0496 -10.9128,16.0706 -11.0107,16.0146 C-11.0667,15.9587 -11.0492,15.8362 -10.9583,15.6472 C-10.8673,15.4583 -10.7588,15.2588 -10.6328,15.0488 C-10.5068,14.8389 -10.3634,14.6254 -10.2024,14.4084 C-10.0414,14.1915 -9.93294,14.013 -9.87695,13.873 C-9.70898,13.6071 -9.49552,13.2887 -9.23657,12.9177 C-8.97762,12.5468 -8.90413,12.2074 -9.01611,11.8994 C-9.1001,11.5495 -9.19458,10.8881 -9.29956,9.91528 C-9.40454,8.94246 -9.33805,7.82617 -9.1001,6.56641 C-8.93213,5.26465 -8.65568,4.10636 -8.27075,3.09155 C-7.88582,2.07674 -7.65137,1.2264 -7.56738,0.540527 C-7.53939,0.190592 -7.58838,-0.0893555 -7.71436,-0.299316 C-7.84033,-0.509277 -7.9908,-0.673747 -8.16577,-0.792725 C-8.34074,-0.911702 -8.50521,-0.992188 -8.65918,-1.03418 C-8.81315,-1.07617 -8.90413,-1.09717 -8.93213,-1.09717 C-8.98812,-1.09717 -9.11759,-1.08317 -9.32056,-1.05518 C-9.52352,-1.02718 -9.71248,-1.02018 -9.88745,-1.03418 C-10.0624,-1.04818 -10.1569,-1.09017 -10.1709,-1.16016 C-10.1849,-1.23014 -10.0309,-1.38411 -9.70898,-1.62207 C-9.05111,-2.04199 -8.50871,-2.25895 -8.08179,-2.27295 C-7.65487,-2.28695 -7.28044,-2.29395 -6.9585,-2.29395 C-6.63656,-2.34993 -6.29712,-2.41642 -5.94019,-2.49341 C-5.58325,-2.57039 -5.29281,-2.65088 -5.06885,-2.73486 C-4.98486,-2.79085 -4.68392,-3.02531 -4.16602,-3.43823 C-3.64811,-3.85116 -3.05322,-4.30957 -2.38135,-4.81348 C-1.70947,-5.31738 -1.0201,-5.80029 -0.313232,-6.26221 C0.393636,-6.72412 0.985026,-7.03906 1.46094,-7.20703 C2.41276,-7.54297 3.31909,-7.71794 4.17993,-7.73193 C5.04077,-7.74593 5.77214,-7.68294 6.37402,-7.54297 C6.68197,-7.48698 6.93742,-7.40299 7.14038,-7.29102 C7.34334,-7.17904 7.51481,-7.04606 7.65479,-6.89209 C7.80876,-6.75212 7.95573,-6.59814 8.0957,-6.43018 L8.87256,-6.43018 C9.06852,-6.43018 9.26099,-6.41618 9.44995,-6.38818 C9.63892,-6.36019 9.76139,-6.3182 9.81738,-6.26221 C10.0413,-6.02425 10.0413,-5.79329 9.81738,-5.56934 C9.76139,-5.48535 9.61092,-5.40137 9.36597,-5.31738 C9.12101,-5.2334 8.84806,-5.14591 8.54712,-5.05493 C8.24618,-4.96395 7.93123,-4.87646 7.60229,-4.79248 C7.27336,-4.7085 6.97591,-4.62451 6.70996,-4.54053 C6.43001,-4.42855 6.11157,-4.27108 5.75464,-4.06812 C5.39771,-3.86515 5.05827,-3.65169 4.73633,-3.42773 C4.3584,-3.16178 3.98747,-2.90283 3.62354,-2.65088 C3.56755,-1.86702 3.35758,-1.28963 2.99365,-0.918701 C2.62972,-0.54777 2.32178,-0.292318 2.06982,-0.152344 C1.81787,-0.0683594 1.6639,-0.0263672 1.60791,-0.0263672 C1.53792,-0.0263672 1.51693,-0.0403646 1.54492,-0.0683594 C1.6709,-0.152344 1.70589,-0.264323 1.6499,-0.404297 L1.54492,-0.677246 C1.48893,-0.705241 1.36296,-0.631755 1.16699,-0.456787 C0.971029,-0.28182 0.743571,-0.0788574 0.484619,0.1521 C0.225667,0.383057 -0.0402832,0.628011 -0.313232,0.886963 C-0.586182,1.14591 -0.792643,1.34538 -0.932617,1.48535 M-6.70654,5.87354 C-6.10465,5.15967 -5.50277,4.4528 -4.90088,3.75293 C-4.38298,3.17904 -3.83008,2.58415 -3.24219,1.96826 C-2.6543,1.35238 -2.1154,0.84847 -1.62549,0.456543 C-1.0236,-0.0613607 -0.537191,-0.463786 -0.16626,-0.750732 C0.204671,-1.03768 0.208171,-1.29313 -0.155762,-1.51709 C-0.421712,-1.67106 -0.768148,-1.68156 -1.19507,-1.54858 C-1.62199,-1.41561 -2.0804,-1.09017 -2.57031,-0.572266 C-2.97624,-0.124349 -3.42065,0.467041 -3.90356,1.2019 C-4.38647,1.93677 -4.83089,2.64714 -5.23682,3.33301 C-5.75472,4.13086 -6.24463,4.9777 -6.70654,5.87354 M13.8486,2.34619 C13.9046,2.43018 13.9396,2.51416 13.9536,2.59814 C13.9676,2.68213 13.9046,2.76611 13.7646,2.8501 C13.7087,2.92008 13.6002,2.97607 13.4392,3.01807 C13.2782,3.06006 13.0928,3.09505 12.8828,3.12305 C12.6729,3.15104 12.4454,3.17904 12.2004,3.20703 C11.9555,3.23503 11.735,3.26302 11.5391,3.29102 C11.3291,3.34701 11.0946,3.42399 10.8357,3.52197 C10.5767,3.61995 10.3353,3.73193 10.1113,3.85791 C9.83138,3.96989 9.55843,4.09587 9.29248,4.23584 C9.2085,4.80973 9.03003,5.19816 8.75708,5.40112 C8.48413,5.60409 8.23568,5.73356 8.01172,5.78955 C7.82975,5.87354 7.72477,5.91553 7.69678,5.91553 C7.66878,5.91553 7.65479,5.90153 7.65479,5.87354 C7.71077,5.81755 7.73877,5.72656 7.73877,5.60059 L7.73877,5.43262 C7.68278,5.40462 7.5848,5.44312 7.44482,5.5481 C7.30485,5.65308 7.13338,5.76855 6.93042,5.89453 C6.72746,6.02051 6.5245,6.15698 6.32153,6.30396 C6.11857,6.45093 5.9611,6.56641 5.84912,6.65039 C5.70915,6.73438 5.53768,6.85335 5.33472,7.00732 C5.13175,7.1613 4.91829,7.32576 4.69434,7.50073 C4.47038,7.6757 4.24992,7.83317 4.03296,7.97314 C3.816,8.11312 3.65153,8.2111 3.53955,8.26709 C3.3016,8.42106 3.03215,8.62752 2.7312,8.88647 C2.43026,9.14543 2.2098,9.34489 2.06982,9.48486 C2.01383,9.54085 1.92985,9.66333 1.81787,9.85229 C1.70589,10.0413 1.57642,10.2477 1.42944,10.4717 C1.28247,10.6956 1.146,10.9161 1.02002,11.1331 C0.894043,11.35 0.817057,11.4865 0.789063,11.5425 C0.733073,11.7104 0.624593,11.9834 0.463623,12.3613 C0.302653,12.7393 0.180176,13.0402 0.0961914,13.2642 C-0.0437826,13.4321 -0.0367839,13.6106 0.117188,13.7996 C0.271159,13.9885 0.432129,14.153 0.600098,14.293 C0.838053,14.4609 0.929036,14.5799 0.873047,14.6499 C0.789063,14.7059 0.624593,14.6744 0.379639,14.5554 C0.134684,14.4364 -0.078776,14.349 -0.260742,14.293 C-0.428711,14.293 -0.635173,14.3595 -0.880127,14.4924 C-1.12508,14.6254 -1.31755,14.7339 -1.45752,14.8179 C-1.62549,14.9019 -1.78996,15.0733 -1.95093,15.3323 C-2.1119,15.5912 -2.23438,15.6787 -2.31836,15.5947 C-2.40234,15.4408 -2.30086,15.2133 -2.01392,14.9124 C-1.72697,14.6114 -1.51351,14.377 -1.37354,14.209 C-1.23356,14.041 -1.0481,13.8416 -0.817139,13.6106 C-0.586182,13.3796 -0.512695,13.1522 -0.59668,12.9282 C-0.652669,12.6903 -0.659668,12.2424 -0.617676,11.5845 C-0.575684,10.9266 -0.421712,10.1707 -0.155762,9.31689 C0.0961914,8.44906 0.393636,7.6932 0.736572,7.04932 C1.07951,6.40544 1.32096,5.83854 1.46094,5.34863 C1.51693,5.15267 1.50993,4.9742 1.43994,4.81323 C1.36995,4.65226 1.27897,4.52979 1.16699,4.4458 C1.05501,4.36182 0.939535,4.29883 0.820557,4.25684 C0.701579,4.21484 0.628092,4.17985 0.600098,4.15186 C0.572103,4.15186 0.495117,4.15186 0.369141,4.15186 C0.243164,4.15186 0.124186,4.14486 0.012207,4.13086 C-0.0997721,4.11686 -0.155762,4.08187 -0.155762,4.02588 C-0.155762,3.96989 -0.0437826,3.86491 0.180176,3.71094 C0.670085,3.48698 1.06551,3.389 1.36646,3.41699 C1.6674,3.44499 1.92985,3.48698 2.15381,3.54297 C2.39176,3.54297 2.62272,3.53597 2.84668,3.52197 C3.07064,3.50798 3.2736,3.45898 3.45557,3.375 C3.51156,3.34701 3.73201,3.21753 4.11694,2.98657 C4.50187,2.75562 4.94629,2.50366 5.4502,2.23071 C5.9541,1.95776 6.46151,1.69181 6.97241,1.43286 C7.48332,1.17391 7.91374,1.01644 8.26367,0.960449 C8.94954,0.820475 9.57943,0.785482 10.1533,0.855469 C10.7272,0.925456 11.2171,1.05143 11.623,1.2334 C11.847,1.28939 12.015,1.36637 12.127,1.46436 C12.2389,1.56234 12.3439,1.65332 12.4419,1.7373 C12.5259,1.84928 12.5959,1.96826 12.6519,2.09424 C12.8198,2.12223 12.9878,2.15023 13.1558,2.17822 C13.3097,2.20622 13.4497,2.22721 13.5757,2.24121 C13.7017,2.25521 13.7926,2.2902 13.8486,2.34619 M5.68115,5.60059 C6.08708,5.34863 6.40552,5.13517 6.63647,4.96021 C6.86743,4.78524 6.89193,4.65576 6.70996,4.57178 C6.62598,4.48779 6.45451,4.48779 6.19556,4.57178 C5.9366,4.65576 5.65316,4.83073 5.34521,5.09668 C5.05127,5.32064 4.71883,5.62858 4.3479,6.02051 C3.97697,6.41243 3.63053,6.79036 3.30859,7.1543 C2.94466,7.58822 2.55973,8.05013 2.15381,8.54004 C2.55973,8.16211 2.97965,7.79118 3.41357,7.42725 C3.74951,7.10531 4.12744,6.77987 4.54736,6.45093 C4.96729,6.12199 5.34521,5.83854 5.68115,5.60059 "/>
</g>

<g fill="#66b1e3" fill-opacity="1" stroke="none" transform="matrix(1,0,0,1,0,0)"
font-family="MS Shell Dlg 2" font-size="7.8" font-weight="400" font-style="normal" 
>
</g>
</g>
</svg>
